package/converter/svg/light/chart-line-up.svg

<svg xmlns="http://www.w3.org/2000/svg" viewBox="0 0 512 512"><!-- Font Awesome Pro 6.0.0-alpha2 by @fontawesome - https://fontawesome.com License - https://fontawesome.com/license (Commercial License) --><path d="M496 448H80C53.531 448 32 426.469 32 400V48C32 39.156 24.844 32 16 32S0 39.156 0 48V400C0 444.125 35.875 480 80 480H496C504.844 480 512 472.844 512 464S504.844 448 496 448ZM123.312 315.312L224 214.625L308.688 299.312C314.938 305.562 325.063 305.562 331.312 299.312L448 182.625V272C448 280.844 455.156 288 464 288S480 280.844 480 272V144C480 135.156 472.844 128 464 128H336C327.156 128 320 135.156 320 144S327.156 160 336 160H425.375L320 265.375L235.312 180.688C229.062 174.438 218.937 174.438 212.688 180.688L100.688 292.688C94.438 298.938 94.438 309.063 100.688 315.312C106.934 321.559 117.059 321.566 123.312 315.312Z"/></svg>

<svg xmlns="http://www.w3.org/2000/svg" viewBox="0 0 512 512"><!--! Font Awesome Pro 6.6.0 by @fontawesome - https://fontawesome.com License - https://fontawesome.com/license (Commercial License) Copyright 2024 Fonticons, Inc. --><path d="M32 48c0-8.8-7.2-16-16-16S0 39.2 0 48L0 400c0 44.2 35.8 80 80 80l416 0c8.8 0 16-7.2 16-16s-7.2-16-16-16L80 448c-26.5 0-48-21.5-48-48L32 48zm288 96c0 8.8 7.2 16 16 16l89.4 0L320 265.4l-84.7-84.7c-6.2-6.2-16.4-6.2-22.6 0l-112 112c-6.2 6.2-6.2 16.4 0 22.6s16.4 6.2 22.6 0L224 214.6l84.7 84.7c6.2 6.2 16.4 6.2 22.6 0L448 182.6l0 89.4c0 8.8 7.2 16 16 16s16-7.2 16-16l0-128c0-8.8-7.2-16-16-16l-128 0c-8.8 0-16 7.2-16 16z"/></svg>
